X:13
T:Katy Hill
Z:Jack Campin  *  May 2000  *  http://www.campin.me.uk/
M:6/8
L:1/8
K:D
D|G2A B2d|gfg e2d|B2G d2G|ABA F2D|G2A B2d|gfg e2d|B2G ABA|   G3  z2:|
d|gfg e2d|gfg e2d|B2G d2G|ABA F2D|G2A B2d|gfg e2d|B2G ABA|[1 G3  z2:|\
                                                          [2 G3 .gz||

